packages/icons/svg/Various_Shutter_32px.svg

<svg xmlns="http://www.w3.org/2000/svg" viewBox="0 0 32 32"><path d="M27.85 3H4.15A1.16 1.16 0 003 4.15v3.7A1.16 1.16 0 004.15 9H5v18a2 2 0 002 2h18a2 2 0 002-2V9h.85A1.16 1.16 0 0029 7.85v-3.7A1.16 1.16 0 0027.85 3zM7 14v-1h18v1zm18 1v1H7v-1zM7 12v-1h18v1zm0 5h18v1H7zm18-8v1H7V9h18zM7 19h18v1H7zm0 8v-6h8v6zm10 0v-6h8v6zM27 7H5V5h22z"/></svg>

<svg xmlns="http://www.w3.org/2000/svg" viewBox="0 0 32 32"><defs></defs><g id="Name"><path  d="M27.85,3H4.15A1.16,1.16,0,0,0,3,4.15v3.7A1.16,1.16,0,0,0,4.15,9H5V27a2,2,0,0,0,2,2H25a2,2,0,0,0,2-2V9h.85A1.16,1.16,0,0,0,29,7.85V4.15A1.16,1.16,0,0,0,27.85,3ZM7,14V13H25v1Zm18,1v1H7V15ZM7,12V11H25v1Zm0,5H25v1H7ZM25,9v1H7V9H25ZM7,19H25v1H7Zm0,8V21h8v6Zm10,0V21h8v6ZM27,7H5V5H27Z"/></g></svg>
